X: 1129
T: Palm Sunday
B: steve's tunes
M:6/8
Q: 3/8=100
K:Adorian
V:1 
B|:"Am"AGE G2E|G2E G2E|A2B c2d|"G"e2d efg|
e3 dBA|BAG Bcd|edc BAG|1 "Am"B2A A2B:|2 "Am"B2A A2e||
|:"Am"a3 efg|a3 bge|"G"g3 gfe|dBA GB/c/d|
efg ded|BAG Bcd|edc BAG|1 "Am"B2A A2e:|2 "Am"B2A A2B||
% abcbook-tune_id 629b8a4cd123264be53d0462


% abcbook-boost 11
% abcbook-tablature 
% abcbook-transpose 
% abcbook-lastupdated 1655985500919
% abcbook-soundfonts 
% abcbook-repeats 3


